Numix/16/status/indicator-keyboard-Ru-7.svg

<?xml version="1.0" encoding="UTF-8" standalone="no"?>
<svg
   xmlns:dc="http://purl.org/dc/elements/1.1/"
   xmlns:cc="http://creativecommons.org/ns#"
   xmlns:rdf="http://www.w3.org/1999/02/22-rdf-syntax-ns#"
   xmlns:svg="http://www.w3.org/2000/svg"
   xmlns="http://www.w3.org/2000/svg"
   xmlns:sodipodi="http://sodipodi.sourceforge.net/DTD/sodipodi-0.dtd"
   xmlns:inkscape="http://www.inkscape.org/namespaces/inkscape"
   viewBox="0 0 16 16"
   id="svg2"
   version="1.1"
   inkscape:version="0.91 r13725"
   sodipodi:docname="indicator-keyboard-Ru-7.svg">
  <metadata
     id="metadata14">
    <rdf:RDF>
      <cc:Work
         rdf:about="">
        <dc:format>image/svg+xml</dc:format>
        <dc:type
           rdf:resource="http://purl.org/dc/dcmitype/StillImage" />
      </cc:Work>
    </rdf:RDF>
  </metadata>
  <defs
     id="defs12" />
  <sodipodi:namedview
     pagecolor="#ffffff"
     bordercolor="#666666"
     borderopacity="1"
     objecttolerance="10"
     gridtolerance="10"
     guidetolerance="10"
     inkscape:pageopacity="0"
     inkscape:pageshadow="2"
     inkscape:window-width="640"
     inkscape:window-height="480"
     id="namedview10"
     showgrid="false"
     inkscape:zoom="14.75"
     inkscape:cx="8"
     inkscape:cy="8"
     inkscape:window-x="65"
     inkscape:window-y="24"
     inkscape:window-maximized="0"
     inkscape:current-layer="svg2" />
  <path
     style="fill:#ececec;fill-opacity:1"
     d="M 1.5996094 0 C 0.71320937 2.9605947e-16 0 0.71320937 0 1.5996094 L 0 14.400391 C 2.9605947e-16 15.286791 0.71320937 16 1.5996094 16 L 14.400391 16 C 15.286791 16 16 15.286791 16 14.400391 L 16 1.5996094 C 16 0.71320937 15.286791 0 14.400391 0 L 1.5996094 0 z M 3.203125 4.8046875 C 4.061125 4.8046875 4.7066719 4.9670156 5.1386719 5.2910156 C 5.5766719 5.6150156 5.7949219 6.0944688 5.7949219 6.7304688 C 5.7949219 7.1984687 5.6717812 7.5678906 5.4257812 7.8378906 C 5.1797813 8.1078906 4.855125 8.3038281 4.453125 8.4238281 C 4.549125 8.5438281 4.6722656 8.7042031 4.8222656 8.9082031 C 4.9782656 9.1122031 5.1368281 9.3379844 5.2988281 9.5839844 C 5.4608281 9.8239844 5.6213437 10.075844 5.7773438 10.339844 C 5.9333438 10.603844 6.063875 10.855703 6.171875 11.095703 L 5.515625 11.095703 C 5.389625 10.855703 5.2515625 10.616953 5.1015625 10.376953 C 4.9575625 10.136953 4.8083437 9.9055939 4.6523438 9.6835938 C 4.5023437 9.4555937 4.3549375 9.2447344 4.2109375 9.0527344 L 3.8320312 8.5488281 C 3.6400312 8.5668281 3.4478594 8.5761719 3.2558594 8.5761719 L 2.2480469 8.5761719 L 2.2480469 11.095703 L 1.6367188 11.095703 L 1.6367188 4.9765625 C 1.8527188 4.9165625 2.1045781 4.8736094 2.3925781 4.8496094 C 2.6865781 4.8196094 2.957125 4.8046875 3.203125 4.8046875 z M 3.2753906 5.3359375 C 3.0473906 5.3359375 2.845875 5.3452813 2.671875 5.3632812 C 2.503875 5.3752812 2.3620469 5.3864375 2.2480469 5.3984375 L 2.2480469 8.0546875 L 3.0957031 8.0546875 C 3.3777031 8.0546875 3.6444844 8.0415781 3.8964844 8.0175781 C 4.1484844 7.9875781 4.3667344 7.9278906 4.5527344 7.8378906 C 4.7387344 7.7418906 4.8861406 7.6075938 4.9941406 7.4335938 C 5.1021406 7.2595938 5.15625 7.0226562 5.15625 6.7226562 C 5.15625 6.4466563 5.1021406 6.2171094 4.9941406 6.0371094 C 4.8861406 5.8571094 4.7443125 5.7172344 4.5703125 5.6152344 C 4.3963125 5.5072344 4.19675 5.4344375 3.96875 5.3984375 C 3.74675 5.3564375 3.5153906 5.3359375 3.2753906 5.3359375 z M 7.1015625 6.4433594 L 7.6855469 6.4433594 L 7.6855469 8.8632812 C 7.6855469 9.1932813 7.7098125 9.4731719 7.7578125 9.7011719 C 7.8058125 9.9291721 7.8841875 10.115766 7.9921875 10.259766 C 8.1001875 10.397766 8.23825 10.498453 8.40625 10.564453 C 8.58025 10.624453 8.7911094 10.654297 9.0371094 10.654297 C 9.3131094 10.654297 9.5518594 10.639375 9.7558594 10.609375 C 9.959859 10.579375 10.088578 10.553297 10.142578 10.529297 L 10.142578 6.4433594 L 10.728516 6.4433594 L 10.728516 10.933594 C 10.554516 10.981594 10.321344 11.035703 10.027344 11.095703 C 9.7333441 11.155703 9.3732656 11.185547 8.9472656 11.185547 C 8.5992656 11.185547 8.3082187 11.135203 8.0742188 11.033203 C 7.8402187 10.931203 7.6498594 10.787563 7.5058594 10.601562 C 7.3618594 10.415563 7.2574063 10.189781 7.1914062 9.9257812 C 7.1314063 9.6617812 7.1015625 9.3707344 7.1015625 9.0527344 L 7.1015625 6.4433594 z M 11.900391 8.8417969 L 14.363281 8.8417969 L 14.363281 9.1816406 C 14.230681 9.3415406 14.083728 9.5551188 13.923828 9.8242188 C 13.767828 10.089419 13.620869 10.391163 13.480469 10.726562 C 13.340069 11.058062 13.216628 11.410756 13.111328 11.785156 C 13.009928 12.159556 12.947228 12.529884 12.923828 12.896484 L 12.519531 12.896484 C 12.542931 12.572784 12.601712 12.229888 12.695312 11.867188 C 12.792812 11.504488 12.910375 11.1518 13.046875 10.8125 C 13.187275 10.4732 13.338147 10.161653 13.498047 9.8769531 C 13.661847 9.5922532 13.818603 9.3649594 13.970703 9.1933594 L 11.900391 9.1933594 L 11.900391 8.8417969 z "
     id="path4" />
</svg>

<svg xmlns="http://www.w3.org/2000/svg" viewBox="0 0 16 16">
 <path d="m 1.6 0 c -0.886 0 -1.6 0.713 -1.6 1.6 l 0 12.801 c 0 0.886 0.713 1.6 1.6 1.6 l 12.801 0 c 0.886 0 1.6 -0.713 1.6 -1.6 l 0 -12.801 c 0 -0.886 -0.713 -1.6 -1.6 -1.6 l -12.801 0 z m 1.604 4.805 c 0.858 0 1.504 0.162 1.936 0.486 c 0.438 0.324 0.656 0.803 0.656 1.439 c 0 0.468 -0.123 0.837 -0.369 1.107 c -0.246 0.27 -0.571 0.466 -0.973 0.586 c 0.096 0.12 0.219 0.28 0.369 0.484 c 0.156 0.204 0.315 0.43 0.477 0.676 c 0.162 0.24 0.323 0.492 0.479 0.756 c 0.156 0.264 0.287 0.516 0.395 0.756 l -0.656 0 c -0.126 -0.24 -0.264 -0.479 -0.414 -0.719 c -0.144 -0.24 -0.293 -0.471 -0.449 -0.693 c -0.15 -0.228 -0.297 -0.439 -0.441 -0.631 l -0.379 -0.504 c -0.192 0.018 -0.384 0.027 -0.576 0.027 l -1.01 0 l 0 2.52 l -0.611 0 l 0 -6.119 c 0.216 -0.06 0.468 -0.103 0.756 -0.127 c 0.294 -0.03 0.565 -0.045 0.811 -0.045 z m 0.072 0.531 c -0.228 0 -0.43 0.009 -0.604 0.027 c -0.168 0.012 -0.31 0.023 -0.424 0.035 l 0 2.656 l 0.848 0 c 0.282 0 0.549 -0.013 0.801 -0.037 c 0.252 -0.03 0.47 -0.09 0.656 -0.18 c 0.186 -0.096 0.333 -0.23 0.441 -0.404 c 0.108 -0.174 0.162 -0.411 0.162 -0.711 c 0 -0.276 -0.054 -0.506 -0.162 -0.686 c -0.108 -0.18 -0.25 -0.32 -0.424 -0.422 c -0.174 -0.108 -0.374 -0.181 -0.602 -0.217 c -0.222 -0.042 -0.453 -0.063 -0.693 -0.063 z m 3.826 1.107 l 0.584 0 l 0 2.42 c 0 0.33 0.024 0.61 0.072 0.838 c 0.048 0.228 0.126 0.415 0.234 0.559 c 0.108 0.138 0.246 0.239 0.414 0.305 c 0.174 0.06 0.385 0.09 0.631 0.09 c 0.276 0 0.515 -0.015 0.719 -0.045 c 0.204 -0.03 0.333 -0.056 0.387 -0.08 l 0 -4.086 l 0.586 0 l 0 4.49 c -0.174 0.048 -0.407 0.102 -0.701 0.162 c -0.294 0.06 -0.654 0.09 -1.08 0.09 c -0.348 0 -0.639 -0.05 -0.873 -0.152 c -0.234 -0.102 -0.424 -0.246 -0.568 -0.432 c -0.144 -0.186 -0.248 -0.412 -0.314 -0.676 c -0.06 -0.264 -0.09 -0.555 -0.09 -0.873 l 0 -2.609 z m 4.799 2.398 l 2.463 0 l 0 0.34 c -0.133 0.16 -0.28 0.373 -0.439 0.643 c -0.156 0.265 -0.303 0.567 -0.443 0.902 c -0.14 0.332 -0.264 0.684 -0.369 1.059 c -0.101 0.374 -0.164 0.745 -0.188 1.111 l -0.404 0 c 0.023 -0.324 0.082 -0.667 0.176 -1.029 c 0.098 -0.363 0.215 -0.715 0.352 -1.055 c 0.14 -0.339 0.291 -0.651 0.451 -0.936 c 0.164 -0.285 0.321 -0.512 0.473 -0.684 l -2.07 0 l 0 -0.352 z" style="fill:#ececec;fill-opacity:1"/>
</svg>
